packages/elvis-assets-icons/icons/svg/src/tree_powerline.svg

<svg width="24" height="24" viewBox="0 0 24 24" fill="none" xmlns="http://www.w3.org/2000/svg">
<g clip-path="url(#clip0)">
<path fill-rule="evenodd" clip-rule="evenodd" d="M1.50793 1.5166C1.3728 1.12091 0.934634 0.907063 0.529252 1.03896C0.123871 1.17086 -0.0952128 1.59855 0.0399143 1.99424C0.594479 3.61817 1.81232 5.58319 3.16008 7.28377C4.10674 8.47824 5.16474 9.60211 6.16358 10.4075C6.10604 10.4917 6.05764 10.5828 6.01946 10.6796C5.883 11.0231 5.89256 11.3979 6.04514 11.7339C6.16421 11.9947 6.36771 12.2175 6.61998 12.3626L1.86345 14.323C1.51658 14.4653 1.24687 14.7307 1.1042 15.0719C0.961997 15.4122 0.963143 15.7866 1.10886 16.1252C1.22988 16.4071 1.44741 16.6448 1.72262 16.7951L6.62468 19.472L5.59057 21.2763C5.40029 21.6083 5.5219 22.0284 5.86201 22.2142C6.20212 22.3999 6.63258 22.2812 6.82286 21.9492L7.85559 20.1474L12.7585 22.8247C13.0863 23.0037 13.466 23.0468 13.8277 22.9485C14.1911 22.8489 14.492 22.6174 14.6767 22.2971C14.831 22.0297 14.8898 21.7165 14.8422 21.4136L14.0662 16.4309C14.7428 16.7804 15.588 16.5386 15.9623 15.8817C16.1085 15.6247 16.1676 15.3221 16.128 15.0299L15.8899 13.2987C16.959 13.2835 18.2144 13.051 19.5269 12.2508C21.4178 11.098 23.0939 8.87839 23.9822 4.88909C24.0729 4.48151 23.808 4.07929 23.3904 3.99071C22.9729 3.90212 22.5608 4.16072 22.4701 4.5683C21.6428 8.28382 20.1469 10.0919 18.7071 10.9697C17.6788 11.5966 16.6078 11.7931 15.6849 11.8082L15.5644 10.9319L15.6466 10.9767C16.326 11.3477 17.1882 11.11 17.5683 10.4468C17.7052 10.2078 17.7657 9.93867 17.7436 9.66658L17.3336 4.54788C17.2965 4.08752 17.0273 3.67835 16.6133 3.45224C16.3693 3.31901 16.0927 3.25957 15.8126 3.28142C15.6265 3.29561 15.4485 3.34472 15.2823 3.42768L10.5993 5.76415C10.263 5.93114 10.0143 6.21645 9.89857 6.56704C9.78284 6.91762 9.81352 7.2913 9.98506 7.61871C10.1145 7.86523 10.3035 8.05685 10.5552 8.19538L10.6374 8.24024L7.65097 9.53232C6.88299 8.89707 5.33455 7.55893 4.38403 6.35957C3.08827 4.72461 1.98498 2.91354 1.50793 1.5166ZM7.3949 11.2075C7.44376 11.179 7.54112 11.1198 7.65151 11.0389L12.4996 8.94132C12.7462 8.83485 12.9067 8.60559 12.9192 8.34289C12.9313 8.08098 12.7932 7.83819 12.5582 7.70988L11.2422 6.9912L15.9264 4.65437L16.3369 9.77227L15.0225 9.05449C14.7875 8.92618 14.502 8.93874 14.2805 9.08625C14.059 9.23375 13.9428 9.48724 13.978 9.74758L14.7294 15.2117L13.4971 14.5388C13.2638 14.4113 12.9703 14.4248 12.7504 14.5732C12.5305 14.7216 12.4143 14.9845 12.4547 15.2435L13.4497 21.6187L2.41203 15.5923L8.49901 13.0834C8.74573 12.9822 8.9145 12.748 8.92947 12.4867C8.94397 12.2261 8.8021 11.9749 8.56879 11.8475L8.56833 11.8483L7.3949 11.2075Z" fill="black"/>
</g>
<defs>
<clipPath id="clip0">
<path d="M0 0H24V24H0V0Z" fill="white"/>
</clipPath>
</defs>
</svg>

<svg width="24" height="24" fill="none" xmlns="http://www.w3.org/2000/svg"><g clip-path="url(#clip0)"><path fill-rule="evenodd" clip-rule="evenodd" d="M1.508 1.517a.778.778 0 00-.979-.478.751.751 0 00-.49.955c.555 1.624 1.773 3.59 3.121 5.29.947 1.194 2.005 2.318 3.004 3.124a1.378 1.378 0 00-.145.272c-.136.343-.126.718.026 1.054.12.26.323.483.575.629l-4.757 1.96a1.384 1.384 0 00-.759.749c-.142.34-.14.715.005 1.053.12.282.338.52.614.67l4.902 2.677-1.034 1.804a.68.68 0 00.271.938c.34.186.77.067.96-.265l1.034-1.802 4.902 2.678c.328.179.708.222 1.07.123.363-.1.664-.33.849-.65.154-.268.213-.581.165-.884l-.776-4.983c.677.35 1.522.108 1.896-.55.146-.256.206-.559.166-.851l-.238-1.731a7.027 7.027 0 003.637-1.048c1.89-1.153 3.567-3.373 4.455-7.362a.755.755 0 00-.592-.898.774.774 0 00-.92.577c-.827 3.716-2.323 5.524-3.763 6.402-1.028.627-2.1.823-3.022.838l-.12-.876.082.045c.679.37 1.541.133 1.921-.53.137-.24.198-.508.176-.78l-.41-5.12a1.375 1.375 0 00-.72-1.095 1.433 1.433 0 00-1.332-.024L10.6 5.764a1.373 1.373 0 00-.7.803c-.116.35-.085.724.086 1.052.13.246.319.438.57.576l.082.045-2.986 1.292C6.883 8.897 5.335 7.56 4.384 6.36 3.088 4.725 1.985 2.914 1.508 1.517zm5.887 9.69c.049-.028.146-.087.257-.168L12.5 8.94a.683.683 0 00.059-1.231l-1.317-.719 4.684-2.337.41 5.118-1.313-.718a.718.718 0 00-.742.032.681.681 0 00-.303.662l.751 5.464-1.232-.673a.726.726 0 00-.747.034.686.686 0 00-.295.67l.995 6.376-11.038-6.027 6.087-2.509a.694.694 0 00.43-.596.691.691 0 00-.36-.64v.001l-1.174-.64z" fill="#000"/></g><defs><clipPath id="clip0"><path d="M0 0h24v24H0V0z" fill="#fff"/></clipPath></defs></svg>
